X:32
T: Herr von Falkenstein
N: A0029
O: Europa, Mitteleuropa, Deutschland
N:  Die Melodie hat zuerst Kretzschmer, Volkslieder II. 1840
N: No. 38 aus muendlicher Ueberlieferung mitgeteilt, und den Text aus dem
N: Museum (Deutsches Museum 1785, Leipzig II, 381) uebersetzt.
R: Romanze, Ballade, Lied
M: 4/4
L: 1/8
K: G
d2 | d2c_BAAd2 | d2c_BA3
c | _B3AG2G2 | F4G2
GG | A2_BBc2A2 | _B2c2d3
c | _B2A2G2B2 | A4G2

